X:1
T: Spring is Near
R: waltz
C: Rick Gagne
N: 1998 on whistle
M: 3/4
K: D
DE | "D"F2 FE DE | F2 D2 DE | "F#m"FA BA FA | "G"d4 DE |
"D"F2 FE DE | F2 D2 DE | "Bm"FA BA FD | "A"E3F/E/ DE |
"D"F2 FE DE | F2 D2 DE | "F#m"FA BA FA | "G"d4 Bc |
"Bm"df ed cB | "D"dF FE DE | "F#m"FA "Bm"BA FD |1 "A"E3F :|2 "A"E3A ||
dc | "Bm"B2 BA FA | B2 F2 dc | "G"Bc BA FA | B2 BF dc |
"Em"B2 BA FA | B2 F2 FG | "D"AB AF DF | "Em"ED EF GA |
"Bm"B2 BA FA | B2 F2 dc | "G"BA Bc de | "D"f2 f2 Bc |
"G"df ed cB | "D"dF FE DE | "F#m"FA BA FD |1 "A"E3A  :|2 "A"E3F/E/ ||
